src/assets/images/currencies/str.svg

<svg height="32" viewBox="0 0 32 32" width="32" xmlns="http://www.w3.org/2000/svg"><path d="m21.7412127 10.7711575-1.9251007.9818018-9.3030529 4.7381564c-.0662737-.5091129-.0618843-1.017616.0131674-1.5255086.0750516-.5078927.2179229-.9959322.4286123-1.4641178.2106894-.4681864.4812152-.8987792.8115767-1.2917792.3303624-.3929993.7080439-.7335158 1.1330441-1.0215494.4250002-.2880337.8812163-.5126699 1.3686477-.6739096.4874313-.1612396.9876108-.2529736 1.5005385-.2752013.512927-.0222276 1.0191669.0258926 1.5187203.1443615.4995526.1184681.9734901.3027967 1.4218142.5529843l1.1021197-.5614877.1644358-.0842228c-.5227814-.37936919-1.0882767-.67779754-1.696486-.89528484-.6082118-.21748649-1.234716-.34529943-1.8795157-.38343874-.6447996-.03813931-1.2820037.01492684-1.9116125.15919763s-1.2263424.37395425-1.7902001.68905012c-.5638576.31509663-1.0722001.70295383-1.5250274 1.16357163-.4528274.4606169-.8319578.9755006-1.1373906 1.5446503-.30543286.5691497-.52490557 1.1697127-.65841746 1.8016907-.13351196.6319771-.17570248 1.2699937-.12657141 1.9140489.0187987.2477069-.03265565.4798421-.15436338.6964041-.12170732.2165618-.29324421.3812102-.51461018.4939465l-.58154107.2967873v1.3828637l1.71173598-.8727118.55426882-.2831512.5462473-.2783376 9.8067868-4.9972422 1.1021214-.5606861 2.2780368-1.1606754v-1.38206289zm2.2587873 1.6138768-12.6294684 6.429839-1.102121.5614879-2.26760888 1.1574665v1.3820624l2.25236918-1.1470396 1.9259036-.9818026 9.3126779-4.7453756c.0672863.5098923.0636623 1.0192797-.0108712 1.528163-.0745343.508882-.217145.9979124-.4278338 1.4670925-.2106887.4691785-.4814422.9006659-.8122612 1.2944631-.3308191.3937971-.7091256.7349307-1.1349227 1.0234016-.425798.28847-.8828925.513309-1.3712859.6745194-.4883942.1612112-.989519.2526592-1.5033733.2743478-.5138556.0216887-1.0209045-.0272081-1.5211467-.1466887-.5002416-.1194798-.9746578-.3050026-1.4232479-.5565661l-.0681808.0360941-1.195167.6096154c.5228616.3795811 1.0884756.678178 1.696842.8957939.6083658.2176183 1.2350425.3455116 1.880031.3836783.6449876.0381692 1.2823749-.0149211 1.9121606-.1592701.6297865-.1443497 1.226669-.3741579 1.7906475-.6894253.5639794-.3152651 1.0723979-.7033254 1.5252563-1.1641779.4528593-.460854.8319639-.9759871 1.1373131-1.5453976.30535-.5694089.5246784-1.1702219.657986-1.8024356.1333061-.632216.1752356-1.2704338.1257878-1.9146557-.0185949-.2474499.0328703-.4793518.1543979-.6957058.1215253-.216354.2927831-.3809687.5137727-.4938448l.5823432-.2967872v-1.3780514z" fill="#ff9580" fill-rule="evenodd"/></svg>

<svg xmlns="http://www.w3.org/2000/svg" width="32" height="32" viewBox="0 0 32 32">
  <path fill="#FF9580" fill-rule="evenodd" d="M21.7412127,10.7711575 L19.816112,11.7529593 L10.5130591,16.4911157 C10.4467854,15.9820028 10.4511748,15.4734997 10.5262265,14.9656071 C10.6012781,14.4577144 10.7441494,13.9696749 10.9548388,13.5014893 C11.1655282,13.0333029 11.436054,12.6027101 11.7664155,12.2097101 C12.0967779,11.8167108 12.4744594,11.4761943 12.8994596,11.1881607 C13.3244598,10.900127 13.7806759,10.6754908 14.2681073,10.5142511 C14.7555386,10.3530115 15.2557181,10.2612775 15.7686458,10.2390498 C16.2815728,10.2168222 16.7878127,10.2649424 17.2873661,10.3834113 C17.7869187,10.5018794 18.2608562,10.686208 18.7091803,10.9363956 L19.8113,10.3749079 L19.9757358,10.2906851 C19.4529544,9.91131591 18.8874591,9.61288756 18.2792498,9.39540026 C17.671038,9.17791377 17.0445338,9.05010083 16.3997341,9.01196152 C15.7549345,8.97382221 15.1177304,9.02688836 14.4881216,9.17115915 C13.8585128,9.31542994 13.2617792,9.5451134 12.6979215,9.86020927 C12.1340639,10.1753059 11.6257214,10.5631631 11.1728941,11.0237809 C10.7200667,11.4843978 10.3409363,11.9992815 10.0355035,12.5684312 C9.73007064,13.1375809 9.51059793,13.7381439 9.37708604,14.3701219 C9.24357408,15.002099 9.20138356,15.6401156 9.25051463,16.2841708 C9.26931333,16.5318777 9.21785898,16.7640129 9.09615125,16.9805749 C8.97444393,17.1971367 8.80290704,17.3617851 8.58154107,17.4745214 L8,17.7713087 L8,19.1541724 L9.71173598,18.2814606 L10.2660048,17.9983094 L10.8122521,17.7199718 L20.6190389,12.7227296 L21.7211603,12.1620435 L23.9991971,11.0013681 L23.9991971,9.61930521 L21.7412127,10.7711575 Z M24,12.3850343 L11.3705316,18.8148733 L10.2684106,19.3763612 L8.00080172,20.5338277 L8.00080172,21.9158901 L10.2531709,20.7688505 L12.1790745,19.7870479 L21.4917524,15.0416723 C21.5590387,15.5515646 21.5554147,16.060952 21.4808812,16.5698353 C21.4063469,17.0787173 21.2637362,17.5677477 21.0530474,18.0369278 C20.8423587,18.5061063 20.5716052,18.9375937 20.2407862,19.3313909 C19.9099671,19.725188 19.5316606,20.0663216 19.1058635,20.3547925 C18.6800655,20.6432625 18.222971,20.8681015 17.7345776,21.0293119 C17.2461834,21.1905231 16.7450586,21.2819711 16.2312043,21.3036597 C15.7173487,21.3253484 15.2102998,21.2764516 14.7100576,21.156971 C14.209816,21.0374912 13.7353998,20.8519684 13.2868097,20.6004049 L13.2186289,20.636499 L12.0234619,21.2461144 C12.5463235,21.6256955 13.1119375,21.9242924 13.7203039,22.1419083 C14.3286697,22.3595266 14.9553464,22.4874199 15.6003349,22.5255866 C16.2453225,22.5637558 16.8827098,22.5106655 17.5124955,22.3663165 C18.142282,22.2219668 18.7391645,21.9921586 19.303143,21.6768912 C19.8671224,21.3616261 20.3755409,20.9735658 20.8283993,20.5127133 C21.2812586,20.0518593 21.6603632,19.5367262 21.9657124,18.9673157 C22.2710624,18.3979068 22.4903908,17.7970938 22.6236984,17.1648801 C22.7570045,16.5326641 22.798934,15.8944463 22.7494862,15.2502244 C22.7308913,15.0027745 22.7823565,14.7708726 22.9038841,14.5545186 C23.0254094,14.3381646 23.1966672,14.1735499 23.4176568,14.0606738 L24,13.7638866 L24,12.3858352 L24,12.3850343 Z"/>
</svg>
